X:6
T:Mrs.Chazey. HS.06
T:Mrs Casey,aka. HS.06
M:6/8
L:1/8
Q:3/8=120
C:”Nat.Quads.,No5,Finale,Irish”
S:Henry Stables MS,Cumbria,late19thC
R:.jig
O:Walthwaite,nr.Ambleside.
A:England
Z:vmp.Chris Partington
K:D
“^Lively”f/e/|d2B BcB|A2A ABA|d2B BcB|g3f2e|!
d2B BcB|A2AA2A|Bcd edc|d3d2:|!
|:A|d2ef2g|a2ba2f|d2ef2g|a3f2a|!
b2ga2f|g2ef2e|d2B BcB|g3f2:|

